X: 4351
T: Bold Dan, The
R: jig
M: 6/8
K: Bdorian
BBB Bfd|BBB ecA|Ace aec|Ace dcd|
BBB Bfd|BBB ecA|cea c'ba|1 gaf ecA:|2 gaf fga||
b2b c'd'b|e'2e' d'c'b|aaa bc'a|b2b afa|
b2b c'd'b|e'2e' f'e'd'|c'd'c' bac'|1 b2b afa:|2 b2b afd||

